icons/networks/logos/shibuya.svg

<svg width="53" height="19" viewBox="0 0 53 19" fill="none" xmlns="http://www.w3.org/2000/svg">
<path d="M4.522 14.154C4.13 14.154 3.72867 14.1213 3.318 14.056C2.91667 14 2.52933 13.916 2.156 13.804C1.792 13.692 1.46533 13.552 1.176 13.384C0.970667 13.272 0.826 13.1273 0.742 12.95C0.658 12.7633 0.625333 12.5767 0.644 12.39C0.672 12.2033 0.742 12.04 0.854 11.9C0.975333 11.7507 1.12467 11.6573 1.302 11.62C1.48867 11.5733 1.694 11.606 1.918 11.718C2.30067 11.9327 2.716 12.0913 3.164 12.194C3.62133 12.2967 4.074 12.348 4.522 12.348C5.20333 12.348 5.68867 12.2453 5.978 12.04C6.26733 11.8253 6.412 11.5593 6.412 11.242C6.412 10.9713 6.30933 10.7567 6.104 10.598C5.89867 10.4393 5.53933 10.304 5.026 10.192L3.444 9.856C2.548 9.66933 1.88067 9.352 1.442 8.904C1.01267 8.44667 0.798 7.84933 0.798 7.112C0.798 6.64533 0.896 6.22067 1.092 5.838C1.288 5.45533 1.56333 5.124 1.918 4.844C2.27267 4.564 2.69267 4.34933 3.178 4.2C3.67267 4.05067 4.214 3.976 4.802 3.976C5.32467 3.976 5.838 4.04133 6.342 4.172C6.846 4.29333 7.28933 4.47533 7.672 4.718C7.85867 4.83 7.98467 4.97467 8.05 5.152C8.12467 5.32 8.148 5.49267 8.12 5.67C8.10133 5.838 8.03133 5.98733 7.91 6.118C7.798 6.24867 7.65333 6.33267 7.476 6.37C7.29867 6.40733 7.084 6.36533 6.832 6.244C6.524 6.08533 6.19733 5.96867 5.852 5.894C5.50667 5.81933 5.152 5.782 4.788 5.782C4.396 5.782 4.06 5.83333 3.78 5.936C3.50933 6.03867 3.29933 6.18333 3.15 6.37C3.01 6.55667 2.94 6.77133 2.94 7.014C2.94 7.28467 3.038 7.504 3.234 7.672C3.43 7.84 3.77067 7.97533 4.256 8.078L5.838 8.414C6.75267 8.61 7.434 8.92733 7.882 9.366C8.33 9.79533 8.554 10.3647 8.554 11.074C8.554 11.5407 8.46067 11.9653 8.274 12.348C8.08733 12.7213 7.81667 13.0433 7.462 13.314C7.10733 13.5847 6.68267 13.7947 6.188 13.944C5.69333 14.084 5.138 14.154 4.522 14.154ZM10.8448 14.126C10.4994 14.126 10.2334 14.0327 10.0468 13.846C9.86942 13.6593 9.78075 13.3933 9.78075 13.048V5.082C9.78075 4.72733 9.86942 4.46133 10.0468 4.284C10.2334 4.09733 10.4994 4.004 10.8448 4.004C11.1808 4.004 11.4374 4.09733 11.6148 4.284C11.8014 4.46133 11.8948 4.72733 11.8948 5.082V8.414H11.6988C11.9134 7.95667 12.2308 7.60667 12.6508 7.364C13.0801 7.112 13.5654 6.986 14.1068 6.986C14.6574 6.986 15.1101 7.09333 15.4648 7.308C15.8194 7.51333 16.0854 7.83067 16.2628 8.26C16.4401 8.68 16.5288 9.21667 16.5288 9.87V13.048C16.5288 13.3933 16.4354 13.6593 16.2488 13.846C16.0714 14.0327 15.8101 14.126 15.4648 14.126C15.1288 14.126 14.8674 14.0327 14.6808 13.846C14.5034 13.6593 14.4148 13.3933 14.4148 13.048V9.968C14.4148 9.492 14.3261 9.15133 14.1488 8.946C13.9808 8.73133 13.7194 8.624 13.3648 8.624C12.9168 8.624 12.5574 8.764 12.2868 9.044C12.0254 9.324 11.8948 9.69733 11.8948 10.164V13.048C11.8948 13.7667 11.5448 14.126 10.8448 14.126ZM19.1709 14.112C18.8256 14.112 18.5596 14.014 18.3729 13.818C18.1956 13.6127 18.1069 13.328 18.1069 12.964V8.176C18.1069 7.80267 18.1956 7.518 18.3729 7.322C18.5596 7.11667 18.8256 7.014 19.1709 7.014C19.5069 7.014 19.7636 7.11667 19.9409 7.322C20.1276 7.518 20.2209 7.80267 20.2209 8.176V12.964C20.2209 13.328 20.1323 13.6127 19.9549 13.818C19.7776 14.014 19.5163 14.112 19.1709 14.112ZM19.1709 5.866C18.7789 5.866 18.4756 5.77733 18.2609 5.6C18.0556 5.41333 17.9529 5.152 17.9529 4.816C17.9529 4.47067 18.0556 4.20933 18.2609 4.032C18.4756 3.84533 18.7789 3.752 19.1709 3.752C19.5629 3.752 19.8616 3.84533 20.0669 4.032C20.2723 4.20933 20.3749 4.47067 20.3749 4.816C20.3749 5.152 20.2723 5.41333 20.0669 5.6C19.8616 5.77733 19.5629 5.866 19.1709 5.866ZM26.095 14.154C25.5443 14.154 25.0543 14.0187 24.625 13.748C24.205 13.468 23.925 13.0993 23.785 12.642L23.939 12.18V13.048C23.939 13.3933 23.8503 13.6593 23.673 13.846C23.4957 14.0327 23.239 14.126 22.903 14.126C22.567 14.126 22.3057 14.0327 22.119 13.846C21.9417 13.6593 21.853 13.3933 21.853 13.048V5.082C21.853 4.72733 21.9417 4.46133 22.119 4.284C22.3057 4.09733 22.5717 4.004 22.917 4.004C23.253 4.004 23.5097 4.09733 23.687 4.284C23.8737 4.46133 23.967 4.72733 23.967 5.082V8.4H23.799C23.9483 7.98 24.233 7.63933 24.653 7.378C25.073 7.11667 25.5537 6.986 26.095 6.986C26.7017 6.986 27.229 7.13067 27.677 7.42C28.125 7.70933 28.475 8.12 28.727 8.652C28.979 9.184 29.105 9.81867 29.105 10.556C29.105 11.2933 28.979 11.9327 28.727 12.474C28.475 13.0153 28.1203 13.4307 27.663 13.72C27.215 14.0093 26.6923 14.154 26.095 14.154ZM25.465 12.572C25.7637 12.572 26.025 12.4973 26.249 12.348C26.4823 12.1987 26.6597 11.9793 26.781 11.69C26.9117 11.3913 26.977 11.0133 26.977 10.556C26.977 9.87467 26.837 9.37533 26.557 9.058C26.277 8.73133 25.913 8.568 25.465 8.568C25.1663 8.568 24.9003 8.638 24.667 8.778C24.443 8.918 24.2657 9.13733 24.135 9.436C24.0043 9.72533 23.939 10.0987 23.939 10.556C23.939 11.2373 24.079 11.746 24.359 12.082C24.639 12.4087 25.0077 12.572 25.465 12.572ZM32.9319 14.154C32.3533 14.154 31.8726 14.0467 31.4899 13.832C31.1073 13.6173 30.8226 13.2953 30.6359 12.866C30.4586 12.4273 30.3699 11.886 30.3699 11.242V8.078C30.3699 7.72333 30.4586 7.45733 30.6359 7.28C30.8226 7.10267 31.0839 7.014 31.4199 7.014C31.7559 7.014 32.0173 7.10267 32.2039 7.28C32.3906 7.45733 32.4839 7.72333 32.4839 8.078V11.298C32.4839 11.7087 32.5679 12.0167 32.7359 12.222C32.9039 12.418 33.1699 12.516 33.5339 12.516C33.9353 12.516 34.2619 12.376 34.5139 12.096C34.7753 11.8067 34.9059 11.4287 34.9059 10.962V8.078C34.9059 7.72333 34.9946 7.45733 35.1719 7.28C35.3586 7.10267 35.6199 7.014 35.9559 7.014C36.3013 7.014 36.5626 7.10267 36.7399 7.28C36.9266 7.45733 37.0199 7.72333 37.0199 8.078V13.048C37.0199 13.7667 36.6793 14.126 35.9979 14.126C35.6619 14.126 35.4053 14.0327 35.2279 13.846C35.0506 13.6593 34.9619 13.3933 34.9619 13.048V12.11L35.1719 12.656C34.9666 13.132 34.6726 13.5007 34.2899 13.762C33.9073 14.0233 33.4546 14.154 32.9319 14.154ZM40.5318 16.646C40.2891 16.646 40.0884 16.5807 39.9298 16.45C39.7711 16.3193 39.6778 16.1467 39.6498 15.932C39.6218 15.7267 39.6591 15.5073 39.7618 15.274L40.6998 13.202V14.07L38.2218 8.386C38.1284 8.14333 38.0958 7.91933 38.1238 7.714C38.1611 7.49933 38.2638 7.33133 38.4318 7.21C38.6091 7.07933 38.8518 7.014 39.1598 7.014C39.4118 7.014 39.6124 7.07467 39.7618 7.196C39.9204 7.308 40.0651 7.52733 40.1958 7.854L41.8478 12.054H41.3998L43.1078 7.84C43.2384 7.52267 43.3831 7.308 43.5418 7.196C43.7098 7.07467 43.9338 7.014 44.2138 7.014C44.4564 7.014 44.6478 7.07933 44.7878 7.21C44.9371 7.33133 45.0258 7.49467 45.0538 7.7C45.0911 7.90533 45.0538 8.12933 44.9418 8.372L41.6518 15.834C41.5118 16.1513 41.3531 16.366 41.1758 16.478C41.0078 16.59 40.7931 16.646 40.5318 16.646ZM48.3079 14.154C47.8039 14.154 47.3512 14.056 46.9499 13.86C46.5485 13.664 46.2359 13.398 46.0119 13.062C45.7879 12.726 45.6759 12.348 45.6759 11.928C45.6759 11.424 45.8065 11.0273 46.0679 10.738C46.3292 10.4393 46.7539 10.2293 47.3419 10.108C47.9299 9.97733 48.7092 9.912 49.6799 9.912H50.4219V11.004H49.6939C49.2179 11.004 48.8305 11.032 48.5319 11.088C48.2425 11.1347 48.0325 11.2187 47.9019 11.34C47.7805 11.4613 47.7199 11.6293 47.7199 11.844C47.7199 12.1053 47.8085 12.32 47.9859 12.488C48.1725 12.656 48.4385 12.74 48.7839 12.74C49.0545 12.74 49.2925 12.6793 49.4979 12.558C49.7125 12.4273 49.8805 12.2547 50.0019 12.04C50.1232 11.816 50.1839 11.564 50.1839 11.284V9.674C50.1839 9.26333 50.0905 8.974 49.9039 8.806C49.7172 8.62867 49.3999 8.54 48.9519 8.54C48.6999 8.54 48.4245 8.57267 48.1259 8.638C47.8365 8.694 47.5145 8.792 47.1599 8.932C46.9545 9.02533 46.7725 9.04867 46.6139 9.002C46.4552 8.946 46.3339 8.85267 46.2499 8.722C46.1659 8.582 46.1239 8.43267 46.1239 8.274C46.1239 8.106 46.1705 7.94733 46.2639 7.798C46.3572 7.63933 46.5112 7.52267 46.7259 7.448C47.1645 7.27067 47.5752 7.14933 47.9579 7.084C48.3499 7.01867 48.7092 6.986 49.0359 6.986C49.7545 6.986 50.3425 7.09333 50.7999 7.308C51.2665 7.51333 51.6165 7.83533 51.8499 8.274C52.0832 8.70333 52.1999 9.25867 52.1999 9.94V13.048C52.1999 13.3933 52.1159 13.6593 51.9479 13.846C51.7799 14.0327 51.5372 14.126 51.2199 14.126C50.9025 14.126 50.6552 14.0327 50.4779 13.846C50.3099 13.6593 50.2259 13.3933 50.2259 13.048V12.53L50.3239 12.614C50.2679 12.9313 50.1465 13.2067 49.9599 13.44C49.7825 13.664 49.5539 13.8413 49.2739 13.972C48.9939 14.0933 48.6719 14.154 48.3079 14.154Z" fill="black"/>
</svg>

<svg viewBox="0 0 53 19" fill="none" xmlns="http://www.w3.org/2000/svg">
  <path d="M4.522 14.154c-.392 0-.793-.033-1.204-.098a7.78 7.78 0 0 1-1.162-.252 4.695 4.695 0 0 1-.98-.42.974.974 0 0 1-.434-.434 1.084 1.084 0 0 1-.098-.56c.028-.187.098-.35.21-.49a.77.77 0 0 1 .448-.28c.187-.047.392-.014.616.098.383.215.798.373 1.246.476.457.103.91.154 1.358.154.681 0 1.167-.103 1.456-.308.29-.215.434-.48.434-.798a.771.771 0 0 0-.308-.644c-.205-.159-.565-.294-1.078-.406l-1.582-.336c-.896-.187-1.563-.504-2.002-.952-.43-.457-.644-1.055-.644-1.792 0-.467.098-.891.294-1.274.196-.383.471-.714.826-.994s.775-.495 1.26-.644a5.6 5.6 0 0 1 1.624-.224c.523 0 1.036.065 1.54.196.504.121.947.303 1.33.546a.845.845 0 0 1 .378.434c.075.168.098.34.07.518a.77.77 0 0 1-.21.448.76.76 0 0 1-.434.252c-.177.037-.392-.005-.644-.126a3.955 3.955 0 0 0-.98-.35 5.02 5.02 0 0 0-1.064-.112c-.392 0-.728.051-1.008.154-.27.103-.48.247-.63.434-.14.187-.21.401-.21.644 0 .27.098.49.294.658.196.168.537.303 1.022.406l1.582.336c.915.196 1.596.513 2.044.952.448.43.672.999.672 1.708 0 .467-.093.891-.28 1.274a2.763 2.763 0 0 1-.812.966c-.355.27-.78.48-1.274.63-.495.14-1.05.21-1.666.21Zm6.323-.028c-.346 0-.612-.093-.798-.28-.178-.187-.266-.453-.266-.798V5.082c0-.355.088-.62.266-.798.186-.187.452-.28.798-.28.336 0 .592.093.77.28.186.177.28.443.28.798v3.332h-.196c.214-.457.532-.807.952-1.05.43-.252.914-.378 1.456-.378.55 0 1.003.107 1.358.322.354.205.62.523.798.952.177.42.266.957.266 1.61v3.178c0 .345-.094.611-.28.798-.178.187-.439.28-.784.28-.336 0-.598-.093-.784-.28-.178-.187-.266-.453-.266-.798v-3.08c0-.476-.089-.817-.266-1.022-.168-.215-.43-.322-.784-.322-.448 0-.808.14-1.078.42-.262.28-.392.653-.392 1.12v2.884c0 .719-.35 1.078-1.05 1.078Zm8.326-.014c-.345 0-.611-.098-.798-.294-.177-.205-.266-.49-.266-.854V8.176c0-.373.089-.658.266-.854.187-.205.453-.308.798-.308.336 0 .593.103.77.308.187.196.28.48.28.854v4.788c0 .364-.089.649-.266.854-.177.196-.439.294-.784.294Zm0-8.246c-.392 0-.695-.089-.91-.266-.205-.187-.308-.448-.308-.784 0-.345.103-.607.308-.784.215-.187.518-.28.91-.28s.69.093.896.28c.205.177.308.439.308.784 0 .336-.103.597-.308.784-.205.177-.504.266-.896.266Zm6.924 8.288c-.55 0-1.04-.135-1.47-.406-.42-.28-.7-.649-.84-1.106l.154-.462v.868c0 .345-.089.611-.266.798-.177.187-.434.28-.77.28s-.597-.093-.784-.28c-.177-.187-.266-.453-.266-.798V5.082c0-.355.089-.62.266-.798.187-.187.453-.28.798-.28.336 0 .593.093.77.28.187.177.28.443.28.798V8.4h-.168c.15-.42.434-.76.854-1.022.42-.261.9-.392 1.442-.392.607 0 1.134.145 1.582.434.448.29.798.7 1.05 1.232s.378 1.167.378 1.904c0 .737-.126 1.377-.378 1.918-.252.541-.607.957-1.064 1.246-.448.29-.97.434-1.568.434Zm-.63-1.582c.299 0 .56-.075.784-.224.233-.15.41-.369.532-.658.13-.299.196-.677.196-1.134 0-.681-.14-1.18-.42-1.498-.28-.327-.644-.49-1.092-.49-.299 0-.565.07-.798.21-.224.14-.401.36-.532.658-.13.29-.196.663-.196 1.12 0 .681.14 1.19.42 1.526.28.327.649.49 1.106.49Zm7.467 1.582c-.579 0-1.06-.107-1.442-.322a1.972 1.972 0 0 1-.854-.966c-.177-.439-.266-.98-.266-1.624V8.078c0-.355.089-.62.266-.798.187-.177.448-.266.784-.266s.597.089.784.266c.187.177.28.443.28.798v3.22c0 .41.084.719.252.924.168.196.434.294.798.294.401 0 .728-.14.98-.42.261-.29.392-.667.392-1.134V8.078c0-.355.089-.62.266-.798.187-.177.448-.266.784-.266.345 0 .607.089.784.266.187.177.28.443.28.798v4.97c0 .719-.34 1.078-1.022 1.078-.336 0-.593-.093-.77-.28-.177-.187-.266-.453-.266-.798v-.938l.21.546c-.205.476-.5.845-.882 1.106-.383.261-.835.392-1.358.392Zm7.6 2.492a.915.915 0 0 1-.602-.196.775.775 0 0 1-.28-.518c-.028-.205.01-.425.112-.658l.938-2.072v.868l-2.478-5.684a1.357 1.357 0 0 1-.098-.672.756.756 0 0 1 .308-.504c.177-.13.42-.196.728-.196.252 0 .452.06.602.182.158.112.303.331.434.658l1.652 4.2H41.4l1.708-4.214c.13-.317.275-.532.434-.644.168-.121.392-.182.672-.182.242 0 .434.065.574.196.15.121.238.285.266.49.037.205 0 .43-.112.672l-3.29 7.462c-.14.317-.299.532-.476.644-.168.112-.383.168-.644.168Zm7.776-2.492c-.504 0-.957-.098-1.358-.294a2.321 2.321 0 0 1-.938-.798 1.998 1.998 0 0 1-.336-1.134c0-.504.13-.9.392-1.19.261-.299.686-.509 1.274-.63.588-.13 1.367-.196 2.338-.196h.742v1.092h-.728c-.476 0-.864.028-1.162.084-.29.047-.5.13-.63.252-.121.121-.182.29-.182.504 0 .261.089.476.266.644.187.168.453.252.798.252.27 0 .508-.06.714-.182.215-.13.383-.303.504-.518.121-.224.182-.476.182-.756v-1.61c0-.41-.093-.7-.28-.868-.187-.177-.504-.266-.952-.266-.252 0-.527.033-.826.098-.29.056-.611.154-.966.294-.205.093-.387.117-.546.07a.69.69 0 0 1-.364-.28.856.856 0 0 1-.126-.448c0-.168.046-.327.14-.476.093-.159.247-.275.462-.35a6.01 6.01 0 0 1 2.31-.462c.718 0 1.306.107 1.764.322a2.12 2.12 0 0 1 1.05.966c.233.43.35.985.35 1.666v3.108c0 .345-.084.611-.252.798-.168.187-.41.28-.728.28-.317 0-.565-.093-.742-.28-.168-.187-.252-.453-.252-.798v-.518l.098.084a1.799 1.799 0 0 1-1.05 1.358 2.41 2.41 0 0 1-.966.182Z" fill="#000"/>
</svg>
